X:1
T:Canon in D
T:Canon in D
T:Johann Pachelbel (1653-1706) Arr: Unknown 
T:  ⑥ =D
T:Arranged for solo guitar
C:Johann Pachelbel (1653-1706)
%%score ( 1 2 3 )
L:1/8
Q:1/4=92
M:4/4
K:D
V:1 treble-8 nm="Classical Guitar" snm="Guit."
V:2 treble-8 
V:3 treble-8 
V:1
"^Andante" D,!3!F!1!A!2!d"^½B II" !0!A,!1!E!1!A!2!c | !1!B,!0!D!4!F!0!B !2!F,!3!C!4!F!1!A | %2
 !4!G,!1!B,!0!D!0!G D,!4!D!3!F!1!A | !4!G,!0!D!0!G!0!B !0!A,!2!E!3!A!4!c ||"^½B II" f4 !0!e4 | %5
 !2!d4"^B II" c4 | !0!B4 !1!A4 | B4"^½B II" !2!c4 || !2![df]4 !2![ce]4 | !4!!3![Bd]4"^B II" [Ac]4 | %10
 [GB]4 !3![FA]4 | [GB]4"^B II" [Ac]4 || !2![df]4 !2![ce]4 | !4!!2![Bd]4 [Ac]4 | [GB]4 !1!A4 | %15
 B4 !2!c4 || !2!d4 !2!c4 |"^B II" !2!d2 f2 !4!a2 !1!A2 | [GB]2 G2 [FA]2 [FA]2 | %19
 G2 !2!!1![Bd]2 d3 !1!c || !0!!2![Dd]!1!E!3!F!0!G !2!A!1!EA!0!G | !4!F!0!B!2!A!0!G !1!AG!4!F!1!E | %22
 !0!D!1!B,!0!B!1!c !2!dcB!1!A | !0!G!3!F!1!E!0!B !1!ABA!0!G || !4!d2 !1!f2 e4 | %25
"^B II" z2 !2!d2 f4 | B4 !1!A2 !2!d2 | B2 !2!g2 e2 !4!a2 || %28
 a!1!f/!1!g/ !4!af/g/ a/!1!A/!0!B/!1!c/ !2!d/!0!e/!1!f/!2!g/ | %29
 fd/!4!e/ f!3!F/!0!G/ !1!A/!0!B/A/G/ A/!4!F/G/A/ | GB/A/ G!3!F/!1!E/ F/E/D/E/ F/G/A/B/ | %31
 GB/A/ Bc/d/ !1!A/B/c/d/ e/!1!f/!2!g/!4!a/ || !2!!1![df]d/!0!e/ ff !2!cc/!3!d/ ec | %33
 !0!B!4!d/!0!e/ !2!f!4!d !1!ff/!0!e/ !2!d!1!c | BB/A/ B!1!c !2!d!1!f/!0!e/ f!4!a | %35
 !1!g!1!d/!4!c/ !0!BB !1!AA/!0!G/ !3!F!1!E || !1!f!3!F!0!GF !1!E!0!e!2!fe | %37
 !2!d!3!F!0!D!0!B !1!A!0!A,!4!G,A, | !1!B,!0!B!1!cB !1!A!0!A,!4!G,A, | %39
 !1!B,B!1!AB !2!c!4!C!1!B,C || !0!D!2!d!0!ed !1!c!3!C!0!DC | z !0!B!3!AB !1!c!3!C!4!F!1!E | %42
 !0!D!1!d!0!e!2!g"^½B II" f!3!FAf |"^½B II" dg!4!fg !0!e!4!a!2!ga || %44
 !3!!1![fa]3 [fa] [fa]!3!!2![gb]!3!!1![fa]!0!!4![eg] |"^B II" !2![df]3 f f!2!gf!0!e | %46
 !1!d!4!=c!0!B!4!c !3!!1![FA]3 A | !0!G2 !2!d2 !2!c3 c | !3!!2![FAd]2 F4 !2!E2 | %49
 !0!D2 !3!!2![Bd]4 !2!!1![A=c]2 | !0![GB]4 !2!d2 !1!A2 | G2 e2 !2!c3 c | %52
 !2!!1![df]2 !3![Fd]2 !1!E2 !2![ce]2 | !3!!4!!2![FBd]2 !0!D2 !4!C2"^B II" [Ac]2 | %54
 !0![GB]2 !4!!3![gb]2 !4!!1![fa]2 !3!!1![FA]2 | !1!!0![EG]2 e2 !2![EA]2 !3![ce]2 | %56
 !1!!3!!2![A,DAdf]8 |] %57
V:2
 x8 | x8 | x8 | x8 || D,!3!FA!2!d A,!1!E!1!A!2!c | !1!B,!0!D!3!F!4!B !2!F,!3!C!4!FA | %6
 !4!G,!1!B,DG D,A,!0!D!3!F | G,B,DG !0!A,!4!C!1!E!1!A || D,FAd A,EAc | %9
 !1!B,!0!D!3!FB !2!F,!3!C!4!FA | G,B,DG D,A,!0!DF | G,B,DG A,!4!CEA || D,4 A,4 | !1!B,4 !3!F,4 | %14
 !4!G,4 D,4 | !4!G,4 A,4 || D,4 A,4 | !3![B,F]4 !2!F,4 | !3!G,4 D,4 | !4![G,D]4 A,4 || D,4 A,4 | %21
 !1!B,4 !3!F,4 | !4!G,4 D,4 | !4!G,4 A,4 || D,!3!E!slide!!3!F!0!G !2![A,A]!1!EAG | %25
 !3![B,F]!4!BA!4!G !3![F,A]!4!G!4!FE | !4![G,D]!1!B,B,!3!C !0![D,D]!3!C!1!B,!0!A, | %27
 !4![G,G]!3!F!1!E!0!B !1!A!0!G!3!F!1!E || D,4 A,4 | B,4 !3!F,4 | !4!G,4 D,4 | !4!G,4 A,4 || %32
 D,4 A,4 | !1!B,4 !3!F,4 | !4!G,4 D,4 | !3!G,4 A,4 || D,4 A,4 | !1!B,4 !3!F,4 | !4!G,4 D,4 | %39
 !4!G,4 !0!A,4 || D,4 !0!A,4 | !2!B,4 !2!F,4 | !4!G,4 D,4 | !3!G,4 A,4 || D,4 G,4 | B,4 !3!F,4 | %46
 !3!G,4 D,4 | !4!G,4 A,4 | D,4 A,4 | !1!B,4 !4!F,4 | !4!G,4 D,4 | !4!G,4 A,4 | D,4 A,4 | %53
 !1!B,4 !3!F,4 | !1!G,4 D,4 | !4!G,4 A,4 | D,8 |] %57
V:3
 x8 | x8 | x8 | x8 || x8 | x8 | x8 | x8 || x8 | x8 | x8 | x8 || A2 !3!F2 !1!A2 !0!G2 | %13
 F2 !0!D2 !4!F2 E2 | D2 !1!B,2 !3!F2 A2 | G2 B2 !1!A2 G2 || !3!F2 F2 !1!A2 G2 | x8 | x8 | %19
 x4 z2 G2 || x8 | x8 | x8 | x8 || x8 | x8 | x8 | x8 || x8 | x8 | x8 | x8 || x8 | x8 | x8 | x8 || %36
 x8 | x8 | x8 | x8 || x8 | x8 | x8 | x8 || x8 | x8 | x8 | !1!E4 !1!A2 !0!G2 | x8 | x8 | x8 | x8 | %52
 x8 | x8 | x8 | x8 | x8 |] %57

